!!!OTL: Baogumiao xiangbadao
!!!ARE: Asia, China,ÿGansu, Liangdang
!! I, 132
!!!SCT: C1415
!!!YEM: Copyright 1995, estate of Helmut Schaffrath.
**kern
*ICvox
*Ivox
*M4/4
*k[b-e-a-d-]
*A-:
{16f
8f
16f
8b-
8b-
8an
8b-
4f}
=1
{4cc
4ff
16ee-
16cc
16ff
16ee-
8cc
16cc
16cc
=2
8ff
8cc
8b-
8f
4cc
4ff
=3
8b-
16a-
16b-
4cc
8bn
8a-
4f}
=4
{16f
8f
16f
8b-
16b-
16bn
8a-
8b-
4f
=5
8b-
8b-
4cc
8.bn
16a-
4f}
=6
{16b-
8f
16f
8b-
16b-
16bn
8a-
8b-
4f}
=7
{4cc
4ff
8ee-
8ff
8cc
8cc
=8
8ff
8cc
8b-
8f
4cc
4ff
=9
8b-
16a-
16b-
4cc
8.bn
16a-
4f}
=10
{16f
8f
16f
8b-
16b-
16bn
8a-
8b-
4f
=11
8b-
8b-
4cc
8.bn
16a-
4f}
==
!!!AGN: Shange, Langkuaihuo
!!!ONB: ESAC (Essen Associative Code) Database: HUANG
!!!AMT: simple quadruple
!!!AIN: vox
!!!EED: Helmut Schaffrath
!!!EEV: 1.0
*-
